src/assets/icons/dev.svg

<?xml version="1.0" encoding="UTF-8"?>
<svg width="60px" height="60px" viewBox="0 0 60 60" version="1.1" xmlns="http://www.w3.org/2000/svg" xmlns:xlink="http://www.w3.org/1999/xlink">
    <!-- Generator: Sketch 48.2 (47327) - http://www.bohemiancoding.com/sketch -->
    <title>noun_1271147_cc</title>
    <desc>Created with Sketch.</desc>
    <defs></defs>
    <g id="Page-1" stroke="none" stroke-width="1" fill="none" fill-rule="evenodd">
        <g id="noun_1271147_cc" fill="#000000" fill-rule="nonzero">
            <path d="M55,0 L5,0 C2.243,0 0,2.243 0,5 L0,43 C0,45.757 2.243,48 5,48 L24.72,48 L23.22,54 L16,54 C15.447,54 15,54.448 15,55 C15,57.757 17.243,60 20,60 L40,60 C42.757,60 45,57.757 45,55 C45,54.448 44.553,54 44,54 L36.78,54 L35.28,48 L55,48 C57.757,48 60,45.757 60,43 L60,5 C60,2.243 57.757,0 55,0 Z M5,2 L55,2 C56.654,2 58,3.346 58,5 L58,40 L2,40 L2,5 C2,3.346 3.346,2 5,2 Z M40,58 L20,58 C18.696,58 17.584,57.164 17.171,56 L24,56 L36,56 L42.829,56 C42.416,57.164 41.304,58 40,58 Z M34.719,54 L25.281,54 L26.781,48 L33.219,48 L34.719,54 Z M55,46 L34,46 L26,46 L5,46 C3.346,46 2,44.654 2,43 L2,42 L58,42 L58,43 C58,44.654 56.654,46 55,46 Z" id="Shape"></path>
            <path d="M21.293,28.293 L17.293,32.293 C16.902,32.684 16.902,33.316 17.293,33.707 L21.293,37.707 L22.707,36.293 L19.414,33 L22.707,29.707 L21.293,28.293 Z" id="Shape"></path>
            <rect id="Rectangle-path" transform="translate(30.002000, 33.001000) rotate(-53.117498) translate(-30.002000, -33.001000) " x="25.0017999" y="32.00096" width="10.0004002" height="2.00008005"></rect>
            <path d="M38.707,28.293 L37.293,29.707 L40.586,33 L37.293,36.293 L38.707,37.707 L42.707,33.707 C43.098,33.316 43.098,32.684 42.707,32.293 L38.707,28.293 Z" id="Shape"></path>
            <path d="M20,18 L21.522,18 C21.627,18.297 21.749,18.589 21.883,18.873 L20.807,19.95 C20.619,20.138 20.514,20.392 20.514,20.657 C20.514,20.922 20.619,21.177 20.807,21.364 L23.635,24.193 C24.026,24.584 24.658,24.584 25.049,24.193 L26.126,23.117 C26.41,23.252 26.701,23.373 26.999,23.478 L26.999,25 C26.999,25.552 27.446,26 27.999,26 L31.999,26 C32.552,26 32.999,25.552 32.999,25 L32.999,23.478 C33.297,23.373 33.588,23.252 33.872,23.117 L34.949,24.193 C35.34,24.584 35.972,24.584 36.363,24.193 L39.191,21.364 C39.379,21.176 39.484,20.922 39.484,20.657 C39.484,20.392 39.379,20.137 39.191,19.95 L38.115,18.873 C38.25,18.589 38.371,18.297 38.476,18 L40,18 C40.553,18 41,17.552 41,17 L41,13 C41,12.448 40.553,12 40,12 L38.478,12 C38.373,11.703 38.251,11.411 38.117,11.127 L39.193,10.05 C39.381,9.862 39.486,9.608 39.486,9.343 C39.486,9.078 39.381,8.823 39.193,8.636 L36.365,5.807 C35.974,5.416 35.342,5.416 34.951,5.807 L33.874,6.883 C33.589,6.749 33.298,6.628 33,6.522 L33,5 C33,4.448 32.553,4 32,4 L28,4 C27.447,4 27,4.448 27,5 L27,6.522 C26.702,6.627 26.411,6.748 26.127,6.883 L25.05,5.808 C24.659,5.417 24.027,5.417 23.636,5.808 L20.808,8.637 C20.62,8.825 20.515,9.079 20.515,9.344 C20.515,9.609 20.62,9.864 20.808,10.051 L21.884,11.128 C21.749,11.412 21.628,11.704 21.523,12.001 L20,12.001 C19.447,12.001 19,12.449 19,13.001 L19,17.001 C19,17.552 19.447,18 20,18 Z M21,14 L22.262,14 C22.718,14 23.116,13.692 23.23,13.25 C23.394,12.616 23.645,12.01 23.976,11.45 C24.207,11.057 24.144,10.557 23.822,10.235 L22.929,9.343 L24.343,7.928 L25.236,8.82 C25.558,9.143 26.06,9.207 26.452,8.974 C27.011,8.644 27.616,8.394 28.251,8.23 C28.691,8.117 29,7.718 29,7.262 L29,6 L31,6 L31,7.262 C31,7.718 31.309,8.116 31.75,8.23 C32.385,8.394 32.99,8.644 33.549,8.974 C33.94,9.205 34.443,9.144 34.765,8.82 L35.658,7.928 L37.072,9.343 L36.179,10.235 C35.857,10.557 35.793,11.057 36.025,11.45 C36.356,12.01 36.607,12.616 36.771,13.25 C36.885,13.691 37.283,14 37.739,14 L39,14 L39,16 L37.738,16 C37.282,16 36.884,16.308 36.77,16.75 C36.606,17.384 36.355,17.99 36.024,18.55 C35.793,18.943 35.856,19.443 36.178,19.765 L37.071,20.657 L35.657,22.072 L34.764,21.18 C34.442,20.857 33.941,20.794 33.548,21.026 C32.989,21.356 32.384,21.606 31.749,21.77 C31.309,21.883 31,22.282 31,22.738 L31,24 L29,24 L29,22.738 C29,22.282 28.691,21.884 28.25,21.77 C27.615,21.606 27.01,21.356 26.451,21.026 C26.059,20.794 25.557,20.856 25.235,21.18 L24.342,22.072 L22.928,20.657 L23.821,19.765 C24.143,19.443 24.207,18.943 23.975,18.55 C23.644,17.99 23.393,17.384 23.229,16.75 C23.115,16.308 22.718,16 22.262,16 L21,16 L21,14 Z" id="Shape"></path>
            <path d="M30,20 C32.757,20 35,17.757 35,15 C35,12.243 32.757,10 30,10 C27.243,10 25,12.243 25,15 C25,17.757 27.243,20 30,20 Z M30,12 C31.654,12 33,13.346 33,15 C33,16.654 31.654,18 30,18 C28.346,18 27,16.654 27,15 C27,13.346 28.346,12 30,12 Z" id="Shape"></path>
            <rect id="Rectangle-path" x="16" y="8" width="2" height="2"></rect>
            <rect id="Rectangle-path" x="12" y="8" width="2" height="2"></rect>
            <rect id="Rectangle-path" x="8" y="8" width="2" height="2"></rect>
            <rect id="Rectangle-path" x="4" y="8" width="2" height="2"></rect>
            <rect id="Rectangle-path" x="4" y="12" width="2" height="2"></rect>
            <rect id="Rectangle-path" x="4" y="16" width="2" height="2"></rect>
            <rect id="Rectangle-path" x="4" y="20" width="2" height="2"></rect>
            <rect id="Rectangle-path" x="4" y="24" width="2" height="2"></rect>
            <rect id="Rectangle-path" x="4" y="28" width="2" height="2"></rect>
            <rect id="Rectangle-path" x="4" y="32" width="2" height="2"></rect>
            <rect id="Rectangle-path" x="8" y="32" width="2" height="2"></rect>
            <rect id="Rectangle-path" x="12" y="32" width="2" height="2"></rect>
            <rect id="Rectangle-path" x="46" y="32" width="2" height="2"></rect>
            <rect id="Rectangle-path" x="50" y="32" width="2" height="2"></rect>
            <rect id="Rectangle-path" x="54" y="32" width="2" height="2"></rect>
            <rect id="Rectangle-path" x="54" y="28" width="2" height="2"></rect>
            <rect id="Rectangle-path" x="54" y="24" width="2" height="2"></rect>
            <rect id="Rectangle-path" x="54" y="20" width="2" height="2"></rect>
            <rect id="Rectangle-path" x="54" y="16" width="2" height="2"></rect>
            <rect id="Rectangle-path" x="54" y="12" width="2" height="2"></rect>
            <rect id="Rectangle-path" x="54" y="8" width="2" height="2"></rect>
            <rect id="Rectangle-path" x="50" y="8" width="2" height="2"></rect>
            <rect id="Rectangle-path" x="46" y="8" width="2" height="2"></rect>
            <rect id="Rectangle-path" x="42" y="8" width="2" height="2"></rect>
        </g>
    </g>
</svg>

<?xml version="1.0" encoding="utf-8"?>
<!-- Generator: Adobe Illustrator 21.0.0, SVG Export Plug-In . SVG Version: 6.00 Build 0)  -->
<svg version="1.1" id="Layer_1" xmlns="http://www.w3.org/2000/svg" xmlns:xlink="http://www.w3.org/1999/xlink" x="0px" y="0px"
	 viewBox="0 0 60 60" style="enable-background:new 0 0 60 60;" xml:space="preserve">
<style type="text/css">
	.st0{fill:#FFFFFF;}
</style>
<title>noun_1271147_cc</title>
<desc>Created with Sketch.</desc>
<g id="Page-1">
	<g id="noun_1271147_cc">
		<path id="Shape" class="st0" d="M55,0H5C2.2,0,0,2.2,0,5v38c0,2.8,2.2,5,5,5h19.7l-1.5,6H16c-0.6,0-1,0.4-1,1c0,2.8,2.2,5,5,5h20
			c2.8,0,5-2.2,5-5c0-0.6-0.4-1-1-1h-7.2l-1.5-6H55c2.8,0,5-2.2,5-5V5C60,2.2,57.8,0,55,0z M5,2h50c1.7,0,3,1.3,3,3v35H2V5
			C2,3.3,3.3,2,5,2z M40,58H20c-1.3,0-2.4-0.8-2.8-2H24h12h6.8C42.4,57.2,41.3,58,40,58z M34.7,54h-9.4l1.5-6h6.4L34.7,54z M55,46
			H34h-8H5c-1.7,0-3-1.3-3-3v-1h56v1C58,44.7,56.7,46,55,46z"/>
		<path id="Shape_1_" class="st0" d="M21.3,28.3l-4,4c-0.4,0.4-0.4,1,0,1.4l4,4l1.4-1.4L19.4,33l3.3-3.3L21.3,28.3z"/>
		
			<rect id="Rectangle-path" x="25" y="32" transform="matrix(0.6002 -0.7999 0.7999 0.6002 -14.4009 37.1922)" class="st0" width="10" height="2"/>
		<path id="Shape_2_" class="st0" d="M38.7,28.3l-1.4,1.4l3.3,3.3l-3.3,3.3l1.4,1.4l4-4c0.4-0.4,0.4-1,0-1.4L38.7,28.3z"/>
		<path id="Shape_3_" class="st0" d="M20,18h1.5c0.1,0.3,0.2,0.6,0.4,0.9L20.8,20c-0.2,0.2-0.3,0.4-0.3,0.7c0,0.3,0.1,0.5,0.3,0.7
			l2.8,2.8c0.4,0.4,1,0.4,1.4,0l1.1-1.1c0.3,0.1,0.6,0.3,0.9,0.4V25c0,0.6,0.4,1,1,1h4c0.6,0,1-0.4,1-1v-1.5
			c0.3-0.1,0.6-0.2,0.9-0.4l1.1,1.1c0.4,0.4,1,0.4,1.4,0l2.8-2.8c0.2-0.2,0.3-0.4,0.3-0.7c0-0.3-0.1-0.5-0.3-0.7l-1.1-1.1
			c0.1-0.3,0.3-0.6,0.4-0.9H40c0.6,0,1-0.4,1-1v-4c0-0.6-0.4-1-1-1h-1.5c-0.1-0.3-0.2-0.6-0.4-0.9l1.1-1.1c0.2-0.2,0.3-0.4,0.3-0.7
			c0-0.3-0.1-0.5-0.3-0.7l-2.8-2.8c-0.4-0.4-1-0.4-1.4,0l-1.1,1.1c-0.3-0.1-0.6-0.3-0.9-0.4V5c0-0.6-0.4-1-1-1h-4c-0.6,0-1,0.4-1,1
			v1.5c-0.3,0.1-0.6,0.2-0.9,0.4L25,5.8c-0.4-0.4-1-0.4-1.4,0l-2.8,2.8c-0.2,0.2-0.3,0.4-0.3,0.7c0,0.3,0.1,0.5,0.3,0.7l1.1,1.1
			c-0.1,0.3-0.3,0.6-0.4,0.9H20c-0.6,0-1,0.4-1,1v4C19,17.6,19.4,18,20,18z M21,14h1.3c0.5,0,0.9-0.3,1-0.8c0.2-0.6,0.4-1.2,0.7-1.8
			c0.2-0.4,0.2-0.9-0.2-1.2l-0.9-0.9l1.4-1.4l0.9,0.9c0.3,0.3,0.8,0.4,1.2,0.2c0.6-0.3,1.2-0.6,1.8-0.7c0.4-0.1,0.7-0.5,0.7-1V6h2
			v1.3c0,0.5,0.3,0.9,0.8,1C32.4,8.4,33,8.6,33.5,9c0.4,0.2,0.9,0.2,1.2-0.2l0.9-0.9l1.4,1.4l-0.9,0.9c-0.3,0.3-0.4,0.8-0.2,1.2
			c0.3,0.6,0.6,1.2,0.7,1.8c0.1,0.4,0.5,0.8,1,0.8H39v2h-1.3c-0.5,0-0.9,0.3-1,0.8c-0.2,0.6-0.4,1.2-0.7,1.8
			c-0.2,0.4-0.2,0.9,0.2,1.2l0.9,0.9l-1.4,1.4l-0.9-0.9c-0.3-0.3-0.8-0.4-1.2-0.2c-0.6,0.3-1.2,0.6-1.8,0.7c-0.4,0.1-0.7,0.5-0.7,1
			V24h-2v-1.3c0-0.5-0.3-0.9-0.8-1c-0.6-0.2-1.2-0.4-1.8-0.7c-0.4-0.2-0.9-0.2-1.2,0.2l-0.9,0.9l-1.4-1.4l0.9-0.9
			c0.3-0.3,0.4-0.8,0.2-1.2c-0.3-0.6-0.6-1.2-0.7-1.8c-0.1-0.4-0.5-0.8-1-0.8H21V14z"/>
		<path id="Shape_4_" class="st0" d="M30,20c2.8,0,5-2.2,5-5s-2.2-5-5-5s-5,2.2-5,5S27.2,20,30,20z M30,12c1.7,0,3,1.3,3,3
			s-1.3,3-3,3s-3-1.3-3-3S28.3,12,30,12z"/>
		<rect id="Rectangle-path_1_" x="16" y="8" class="st0" width="2" height="2"/>
		<rect id="Rectangle-path_2_" x="12" y="8" class="st0" width="2" height="2"/>
		<rect id="Rectangle-path_3_" x="8" y="8" class="st0" width="2" height="2"/>
		<rect id="Rectangle-path_4_" x="4" y="8" class="st0" width="2" height="2"/>
		<rect id="Rectangle-path_5_" x="4" y="12" class="st0" width="2" height="2"/>
		<rect id="Rectangle-path_6_" x="4" y="16" class="st0" width="2" height="2"/>
		<rect id="Rectangle-path_7_" x="4" y="20" class="st0" width="2" height="2"/>
		<rect id="Rectangle-path_8_" x="4" y="24" class="st0" width="2" height="2"/>
		<rect id="Rectangle-path_9_" x="4" y="28" class="st0" width="2" height="2"/>
		<rect id="Rectangle-path_10_" x="4" y="32" class="st0" width="2" height="2"/>
		<rect id="Rectangle-path_11_" x="8" y="32" class="st0" width="2" height="2"/>
		<rect id="Rectangle-path_12_" x="12" y="32" class="st0" width="2" height="2"/>
		<rect id="Rectangle-path_13_" x="46" y="32" class="st0" width="2" height="2"/>
		<rect id="Rectangle-path_14_" x="50" y="32" class="st0" width="2" height="2"/>
		<rect id="Rectangle-path_15_" x="54" y="32" class="st0" width="2" height="2"/>
		<rect id="Rectangle-path_16_" x="54" y="28" class="st0" width="2" height="2"/>
		<rect id="Rectangle-path_17_" x="54" y="24" class="st0" width="2" height="2"/>
		<rect id="Rectangle-path_18_" x="54" y="20" class="st0" width="2" height="2"/>
		<rect id="Rectangle-path_19_" x="54" y="16" class="st0" width="2" height="2"/>
		<rect id="Rectangle-path_20_" x="54" y="12" class="st0" width="2" height="2"/>
		<rect id="Rectangle-path_21_" x="54" y="8" class="st0" width="2" height="2"/>
		<rect id="Rectangle-path_22_" x="50" y="8" class="st0" width="2" height="2"/>
		<rect id="Rectangle-path_23_" x="46" y="8" class="st0" width="2" height="2"/>
		<rect id="Rectangle-path_24_" x="42" y="8" class="st0" width="2" height="2"/>
	</g>
</g>
</svg>
